aloe_vera/img/advantages_5.svg

<svg width="65" height="65" viewBox="0 0 65 65" fill="none" xmlns="http://www.w3.org/2000/svg">
<path d="M14.2188 1.01562H50.7713V5.07812H14.2188V1.01562Z" fill="#4A89DC"/>
<path d="M47.721 1.01562H50.7713V5.07812H47.721V1.01562Z" fill="#3679CE"/>
<path d="M32.5099 19.2969C36.989 19.2969 40.6349 22.9329 40.6349 27.4219C40.6349 31.9109 36.989 35.5469 32.5099 35.5469C28.0209 35.5469 24.3849 31.9109 24.3849 27.4219C24.3849 22.9329 28.0209 19.2969 32.5099 19.2969Z" fill="#E6E9ED"/>
<path d="M50.7713 5.07812L44.6974 50.7812H20.3026L14.2188 5.07812H50.7713ZM40.6349 27.4219C40.6349 22.9329 36.989 19.2969 32.5099 19.2969C28.0209 19.2969 24.3849 22.9329 24.3849 27.4219C24.3849 31.9109 28.0209 35.5469 32.5099 35.5469C36.989 35.5469 40.6349 31.9109 40.6349 27.4219Z" fill="#5D9CEC"/>
<path d="M47.721 5.07812L41.6476 50.7812H44.6974L50.7713 5.07812H47.721Z" fill="#4A89DC"/>
<path d="M20.3026 50.7812V57.8906C20.3026 61.2623 23.0241 63.9844 26.3963 63.9844H38.5838C41.9545 63.9844 44.6776 61.2623 44.6776 57.8906V50.7812H20.3026Z" fill="#E6E9ED"/>
<path d="M41.6272 50.7812V57.8906C41.6272 61.2623 38.9047 63.9844 35.5335 63.9844H38.5838C41.9545 63.9844 44.6776 61.2623 44.6776 57.8906V50.7812H41.6272Z" fill="#CCD1D9"/>
<path d="M26.3929 65C22.4737 65 19.2835 61.8098 19.2835 57.8906C19.2835 57.3288 19.7377 56.875 20.2991 56.875C20.861 56.875 21.3147 57.3288 21.3147 57.8906C21.3147 60.6905 23.5929 62.9688 26.3929 62.9688C26.9547 62.9688 27.4085 63.4225 27.4085 63.9844C27.4085 64.5462 26.9547 65 26.3929 65Z" fill="black"/>
<path d="M38.5804 65C38.019 65 37.5647 64.5462 37.5647 63.9844C37.5647 63.4225 38.019 62.9688 38.5804 62.9688C41.3808 62.9688 43.6585 60.6905 43.6585 57.8906C43.6585 57.3288 44.1127 56.875 44.6741 56.875C45.236 56.875 45.6897 57.3288 45.6897 57.8906C45.6897 61.8098 42.501 65 38.5804 65Z" fill="black"/>
<path d="M38.5804 65H26.3929C25.8315 65 25.3772 64.5462 25.3772 63.9844C25.3772 63.4225 25.8315 62.9688 26.3929 62.9688H38.5804C39.1422 62.9688 39.596 63.4225 39.596 63.9844C39.596 64.5462 39.1422 65 38.5804 65Z" fill="black"/>
<path d="M44.6741 58.9062C44.1127 58.9062 43.6585 58.4525 43.6585 57.8906V50.7822C43.6585 50.2209 44.1127 49.7666 44.6741 49.7666C45.236 49.7666 45.6897 50.2209 45.6897 50.7822V57.8906C45.6897 58.4525 45.236 58.9062 44.6741 58.9062Z" fill="black"/>
<path d="M20.2991 58.9062C19.7377 58.9062 19.2835 58.4525 19.2835 57.8906V50.7822C19.2835 50.2209 19.7377 49.7666 20.2991 49.7666C20.861 49.7666 21.3147 50.2209 21.3147 50.7822V57.8906C21.3147 58.4525 20.861 58.9062 20.2991 58.9062Z" fill="black"/>
<path d="M44.6741 51.7979H20.2991C19.7377 51.7979 19.2835 51.3441 19.2835 50.7822C19.2835 50.2209 19.7377 49.7666 20.2991 49.7666H44.6741C45.236 49.7666 45.6897 50.2209 45.6897 50.7822C45.6897 51.3441 45.236 51.7979 44.6741 51.7979Z" fill="black"/>
<path d="M44.6741 56.876H20.2991C19.7377 56.876 19.2835 56.4222 19.2835 55.8604C19.2835 55.299 19.7377 54.8447 20.2991 54.8447H44.6741C45.236 54.8447 45.6897 55.299 45.6897 55.8604C45.6897 56.4222 45.236 56.876 44.6741 56.876Z" fill="black"/>
<path d="M20.2981 51.7979C19.7968 51.7979 19.3599 51.4274 19.2929 50.9161L13.212 5.21399C13.1382 4.65758 13.5289 4.14778 14.0849 4.07389C14.6432 4.00248 15.1521 4.39078 15.2254 4.9462L21.3058 50.6483C21.3797 51.2047 20.9889 51.7145 20.4335 51.7889C20.3879 51.7949 20.3428 51.7979 20.2981 51.7979Z" fill="black"/>
<path d="M44.6915 51.7979C44.6468 51.7979 44.6022 51.7949 44.5566 51.789C44.0002 51.7146 43.6089 51.2048 43.6843 50.6484L49.7646 4.94624C49.8375 4.38934 50.3478 4.00153 50.9052 4.07394C51.4616 4.14783 51.8529 4.65762 51.7775 5.21404L45.6972 50.9162C45.6302 51.4275 45.1933 51.7979 44.6915 51.7979Z" fill="black"/>
<path d="M50.7713 6.09573H14.2188C13.6569 6.09573 13.2031 5.64198 13.2031 5.08011V1.01562C13.2031 0.453758 13.6569 0 14.2188 0H50.7713C51.3327 0 51.787 0.453758 51.787 1.01562V5.08011C51.787 5.64198 51.3327 6.09573 50.7713 6.09573ZM15.2344 4.06448H49.7557V2.03125H15.2344V4.06448Z" fill="black"/>
<path d="M18.2679 6.09573C17.7065 6.09573 17.2522 5.64198 17.2522 5.08011V4.0625C17.2522 3.50063 17.7065 3.04688 18.2679 3.04688C18.8297 3.04688 19.2835 3.50063 19.2835 4.0625V5.08011C19.2835 5.64198 18.8297 6.09573 18.2679 6.09573Z" fill="black"/>
<path d="M22.3304 6.09573C21.769 6.09573 21.3147 5.64198 21.3147 5.08011V4.0625C21.3147 3.50063 21.769 3.04688 22.3304 3.04688C22.8922 3.04688 23.346 3.50063 23.346 4.0625V5.08011C23.346 5.64198 22.8922 6.09573 22.3304 6.09573Z" fill="black"/>
<path d="M26.3929 6.09573C25.8315 6.09573 25.3772 5.64198 25.3772 5.08011V4.0625C25.3772 3.50063 25.8315 3.04688 26.3929 3.04688C26.9547 3.04688 27.4085 3.50063 27.4085 4.0625V5.08011C27.4085 5.64198 26.9547 6.09573 26.3929 6.09573Z" fill="black"/>
<path d="M30.4554 6.09573C29.894 6.09573 29.4397 5.64198 29.4397 5.08011V4.0625C29.4397 3.50063 29.894 3.04688 30.4554 3.04688C31.0172 3.04688 31.471 3.50063 31.471 4.0625V5.08011C31.471 5.64198 31.0172 6.09573 30.4554 6.09573Z" fill="black"/>
<path d="M34.5179 6.09573C33.9565 6.09573 33.5022 5.64198 33.5022 5.08011V4.0625C33.5022 3.50063 33.9565 3.04688 34.5179 3.04688C35.0797 3.04688 35.5335 3.50063 35.5335 4.0625V5.08011C35.5335 5.64198 35.0797 6.09573 34.5179 6.09573Z" fill="black"/>
<path d="M38.5804 6.09573C38.019 6.09573 37.5647 5.64198 37.5647 5.08011V4.0625C37.5647 3.50063 38.019 3.04688 38.5804 3.04688C39.1422 3.04688 39.596 3.50063 39.596 4.0625V5.08011C39.596 5.64198 39.1422 6.09573 38.5804 6.09573Z" fill="black"/>
<path d="M42.6429 6.09573C42.0815 6.09573 41.6272 5.64198 41.6272 5.08011V4.0625C41.6272 3.50063 42.0815 3.04688 42.6429 3.04688C43.2047 3.04688 43.6585 3.50063 43.6585 4.0625V5.08011C43.6585 5.64198 43.2047 6.09573 42.6429 6.09573Z" fill="black"/>
<path d="M46.7054 6.09573C46.144 6.09573 45.6897 5.64198 45.6897 5.08011V4.0625C45.6897 3.50063 46.144 3.04688 46.7054 3.04688C47.2672 3.04688 47.721 3.50063 47.721 4.0625V5.08011C47.721 5.64198 47.2672 6.09573 46.7054 6.09573Z" fill="black"/>
<path d="M32.503 36.5655C27.4625 36.5655 23.3624 32.4653 23.3624 27.4249C23.3624 22.3844 27.4625 18.2842 32.503 18.2842C37.5434 18.2842 41.6436 22.3844 41.6436 27.4249C41.6436 32.4653 37.5434 36.5655 32.503 36.5655ZM32.503 20.3155C28.5838 20.3155 25.3936 23.5057 25.3936 27.4249C25.3936 31.344 28.5838 34.5342 32.503 34.5342C36.4222 34.5342 39.6124 31.344 39.6124 27.4249C39.6124 23.5057 36.4222 20.3155 32.503 20.3155Z" fill="black"/>
<path d="M35.5499 27.4249H29.4561C28.8947 27.4249 28.4405 26.9711 28.4405 26.4092C28.4405 25.8479 28.8947 25.3936 29.4561 25.3936H35.5499C36.1117 25.3936 36.5655 25.8479 36.5655 26.4092C36.5655 26.9711 36.1117 27.4249 35.5499 27.4249Z" fill="black"/>
<path d="M33.5176 30.4717H31.4883C30.927 30.4717 30.4727 30.018 30.4727 29.4561C30.4727 28.8947 30.927 28.4405 31.4883 28.4405H33.5176C34.0795 28.4405 34.5332 28.8947 34.5332 29.4561C34.5332 30.018 34.0795 30.4717 33.5176 30.4717Z" fill="black"/>
</svg>

<svg width="65" height="65" fill="none" xmlns="http://www.w3.org/2000/svg"><path d="M14.219 1.016H50.77v4.062H14.22V1.016z" fill="#4A89DC"/><path d="M47.721 1.016h3.05v4.062h-3.05V1.016z" fill="#3679CE"/><path d="M32.51 19.297c4.479 0 8.125 3.636 8.125 8.125s-3.646 8.125-8.125 8.125a8.123 8.123 0 01-8.125-8.125 8.123 8.123 0 018.125-8.125z" fill="#E6E9ED"/><path d="M50.771 5.078l-6.074 45.703H20.303L14.219 5.078H50.77zM40.635 27.422c0-4.49-3.646-8.125-8.125-8.125a8.123 8.123 0 00-8.125 8.125 8.123 8.123 0 008.125 8.125c4.479 0 8.125-3.636 8.125-8.125z" fill="#5D9CEC"/><path d="M47.721 5.078l-6.073 45.703h3.05L50.77 5.078h-3.05z" fill="#4A89DC"/><path d="M20.303 50.781v7.11a6.085 6.085 0 006.093 6.093h12.188a6.087 6.087 0 006.094-6.093v-7.11H20.303z" fill="#E6E9ED"/><path d="M41.627 50.781v7.11a6.086 6.086 0 01-6.094 6.093h3.05a6.087 6.087 0 006.095-6.093v-7.11h-3.05z" fill="#CCD1D9"/><path d="M26.393 65c-3.92 0-7.11-3.19-7.11-7.11a1.015 1.015 0 112.032 0c0 2.8 2.278 5.079 5.078 5.079a1.014 1.014 0 110 2.031zm12.187 0a1.015 1.015 0 110-2.031c2.8 0 5.078-2.279 5.078-5.078a1.015 1.015 0 112.032 0C45.69 61.81 42.5 65 38.58 65z" fill="#000"/><path d="M38.58 65H26.393a1.015 1.015 0 110-2.031H38.58a1.014 1.014 0 110 2.031zm6.094-6.094a1.015 1.015 0 01-1.016-1.015v-7.109a1.015 1.015 0 112.032 0v7.109c0 .562-.454 1.015-1.016 1.015zm-24.374 0a1.015 1.015 0 01-1.017-1.015v-7.109a1.015 1.015 0 112.032 0v7.109c0 .562-.454 1.015-1.016 1.015z" fill="#000"/><path d="M44.674 51.798H20.3a1.015 1.015 0 110-2.031h24.375a1.015 1.015 0 110 2.03zm0 5.078H20.3a1.015 1.015 0 110-2.031h24.375a1.015 1.015 0 110 2.031z" fill="#000"/><path d="M20.298 51.798c-.501 0-.938-.37-1.005-.882L13.212 5.214a1.015 1.015 0 112.013-.268l6.08 45.702a1.016 1.016 0 01-1.007 1.15zm24.393 0a1.014 1.014 0 01-1.007-1.15l6.08-45.702a1.014 1.014 0 011.141-.872c.557.074.948.584.873 1.14l-6.08 45.702a1.014 1.014 0 01-1.007.882z" fill="#000"/><path d="M50.771 6.096H14.22a1.014 1.014 0 01-1.016-1.016V1.016A1.014 1.014 0 0114.22 0h36.55c.562 0 1.016.454 1.016 1.016V5.08c0 .562-.454 1.016-1.016 1.016zM15.234 4.064h34.522V2.031H15.234v2.033z" fill="#000"/><path d="M18.268 6.096a1.015 1.015 0 01-1.016-1.016V4.062a1.015 1.015 0 112.032 0V5.08c0 .562-.454 1.016-1.016 1.016zm4.062 0a1.015 1.015 0 01-1.015-1.016V4.062a1.015 1.015 0 112.031 0V5.08c0 .562-.454 1.016-1.016 1.016zm4.063 0a1.015 1.015 0 01-1.016-1.016V4.062a1.015 1.015 0 112.032 0V5.08c0 .562-.454 1.016-1.016 1.016zm4.062 0A1.015 1.015 0 0129.44 5.08V4.062a1.015 1.015 0 112.031 0V5.08c0 .562-.454 1.016-1.016 1.016zm4.063 0a1.015 1.015 0 01-1.016-1.016V4.062a1.015 1.015 0 112.031 0V5.08c0 .562-.453 1.016-1.015 1.016zm4.062 0a1.015 1.015 0 01-1.015-1.016V4.062a1.015 1.015 0 112.031 0V5.08c0 .562-.454 1.016-1.016 1.016zm4.063 0a1.015 1.015 0 01-1.016-1.016V4.062a1.015 1.015 0 112.031 0V5.08c0 .562-.453 1.016-1.015 1.016zm4.062 0A1.015 1.015 0 0145.69 5.08V4.062a1.015 1.015 0 112.031 0V5.08c0 .562-.454 1.016-1.016 1.016zm-14.202 30.47c-5.04 0-9.14-4.1-9.14-9.141 0-5.04 4.1-9.14 9.14-9.14 5.04 0 9.14 4.1 9.14 9.14 0 5.04-4.1 9.14-9.14 9.14zm0-16.25c-3.92 0-7.11 3.19-7.11 7.109s3.19 7.11 7.11 7.11c3.92 0 7.11-3.191 7.11-7.11 0-3.92-3.19-7.11-7.11-7.11z" fill="#000"/><path d="M35.55 27.425h-6.094a1.015 1.015 0 110-2.031h6.094a1.015 1.015 0 110 2.03zm-2.032 3.047h-2.03a1.015 1.015 0 110-2.032h2.03a1.015 1.015 0 110 2.032z" fill="#000"/></svg>
